X:118
T:Cheag Na Pollaich
R:Strathspey
C:James Stewart-Robertson
B:The Athole Collection
M:C|
L:1/8
K:C
G,|CC E>CE>G c2|CCEC B,<D D>E|CC D>CD>G c>a|gedg e<c~c:|
|:g|e>cg>c B<d d>f|e>cg>c a/g/f/e/ g>a|1 e>cg>c B<d d>a|g>ed>g e<c~c:|2
f>de>c B>cd>f|e>c e/d/c/B/ ~c2C||

